X: 89
T: Pollonesse #89
M: 3/4
L: 1/16
K: D
Q:120
A2Bc d2c2 d2e2|f2ef g2f2 e2d2|c2d2 e2d2 c2B2|A2Bc d2c2 d2e2|
f2ef g2f2 e2d2|cdec d4 D4::f2ef g2f2 e2d2|d2ef g2f2 e2d2c2d2 e4 e4|
A2Bc d2c2 d2e2|f2ef g2f2 e2d2| cdec d4 D4:|
N: Jämför nr. 38 & 71

